packages/ui-icons/src/Basic/24/Cloud-update_24.svg

<svg xmlns="http://www.w3.org/2000/svg" viewBox="0 0 32 32"><path d="M28.08 17v-1A12 12 0 0 0 7.53 7.53l1.41 1.41A10 10 0 0 1 26.08 16v1.13l-1.38-1.87-1.41 1.41 3.08 3.08h1.25l3.08-3.08-1.41-1.41ZM4 15v1a12 12 0 0 0 20.56 8.51l-1.41-1.41A10 10 0 0 1 6 16v-1l1.29 1.71L8.7 15.3l-3.07-3.09H4.37l-3.08 3.08L2.7 16.7Z"/><path d="M15.43 21h3.9a3.76 3.76 0 0 0 1.18-7.31A4.8 4.8 0 0 0 16 11a4.83 4.83 0 0 0-4.93 4 3.08 3.08 0 0 0 .93 6ZM11 17.93a1 1 0 0 1 1-1.07h1v-1A2.84 2.84 0 0 1 16 13a2.78 2.78 0 0 1 2.82 1.85l.19.57.59.1a1.76 1.76 0 0 1-.27 3.48H12a1 1 0 0 1-1-1.07Z"/></svg>

<svg id="Ready" xmlns="http://www.w3.org/2000/svg" viewBox="0 0 32 32"><title>Megaicons_work_24_1.8_cp</title><path d="M28.08,17V16A12,12,0,0,0,7.53,7.53L8.94,8.94A10,10,0,0,1,26.08,16v1.13l-1.38-1.87-1.41,1.41,3.08,3.08h1.25l3.08-3.08-1.41-1.41Z"/><path d="M4,15v1a12,12,0,0,0,20.56,8.51l-1.41-1.41A10,10,0,0,1,6,16V15l1.29,1.71,1.41-1.41L5.63,12.21H4.37L1.29,15.29l1.41,1.41Z"/><path d="M15.43,21h3.9a3.76,3.76,0,0,0,1.18-7.31A4.8,4.8,0,0,0,16,11a4.83,4.83,0,0,0-4.93,4A3.08,3.08,0,0,0,12,21ZM11,17.93a1,1,0,0,1,1-1.07h1v-1A2.84,2.84,0,0,1,16,13a2.78,2.78,0,0,1,2.82,1.85l.19.57.59.1A1.76,1.76,0,0,1,19.33,19H12A1,1,0,0,1,11,17.93Z"/></svg>
